!!!SOCIAL_FUNCTION:	klokali songs
!!!PDT:	1939
!!!OTL: No_51_Song_With_Impersonation_of_the_Deer_(a).krn
!!!LANG: Non-Tone
!!!LING_GROUP: Wakashan
!!!REG: Pacific Northwest
**kern	**kern
*staff2	*staff1
=1-	=1-
*clefF4	*clefF4
*k[f#c#]	*k[f#c#]
*M2/4	*M2/4
2r	4r
.	8r
.	16r
.	16B\
=2	=2
8GG^/	[2c#\
8r	.
8GG/L	.
8GG/J	.
=3	=3
8GG^/	4c#\]
8r	.
8GG/L	20d\LL
.	20c#\
.	20c#\
8GG/J	.
.	20B\
.	20c#\JJ
=4!|:	=4!|:
8GG^/	2c#\
8r	.
8GG/L	.
8GG/J	.
=5	=5
8GG^/	4r
8r	.
8GG/L	8c#\L
8GG/J	8c#\J
=6	=6
8GG^/	4d\
8r	.
8GG/L	16c#\
.	16r
8GG/J	8d\
=7	=7
8GG^/	8d\
8r	8r
8GG/L	8d\L
8GG/J	8d\J
=8||	=8||
*M7/8	*M7/8
8GG^/	8.d\L
8r	.
.	16c#\L
8GG/L	16B\JJ
.	16r
8GG/	8c#\L
8GG^/J	8d\J
8r	8r
8GG/	8d\
=9||	=9||
*M2/4	*M2/4
8GG^/	[2c#\
8r	.
8GG/L	.
8GG/J	.
=10	=10
8GG^/	4c#\]
8r	.
8GG/L	4r
8GG/J	.
=11	=11
8GG^/	4c#\
8r	.
8GG/L	8B\L
8GG/J	8c#\J
=12	=12
8GG^/	2c#\
8r	.
8GG/L	.
8GG/J	.
=13	=13
8GG^/	4r
8r	.
8GG/L	8c#\L
8GG/J	8c#\J
=14	=14
8GG^/	4d\
8r	.
8GG/L	16c#\
.	16r
8GG/J	8d\
=15	=15
8GG^/	8d\
8r	8r
8GG/L	8d\L
8GG/J	8d\J
=16||	=16||
*M7/8	*M7/8
8GG^/	8.d\L
8r	.
.	16c#\L
8GG/L	16B\JJ
.	16r
8GG/	8c#\L
8GG^/J	8d\J
8r	8r
8GG/	8d\
=17||	=17||
*M2/4	*M2/4
8GG^/	[2c#\
8r	.
8GG/L	.
8GG/J	.
=18	=18
8GG^/	4c#\]
8r	.
8GG/L	4r
8GG/J	.
=19	=19
8GG^/	4c#\
8r	.
8GG/L	8B\L
8GG/J	8c#\J
=20||	=20||
*M7/8	*M7/8
8GG^/	2c#\
8r	.
8GG/L	.
8GG/	.
8GG^/J	4r
8r	.
8GG/	8B\
=21	=21
8GG^/	4B\
8r	.
8GG/L	4r
8GG/	.
8GG^/J	4r
8r	.
8GG/	8B\
=22	=22
8GG^/	4B\
8r	.
8GG/L	4r
8GG/	.
8GG^/J	4r
8r	.
8GG/	8c#\
=23||	=23||
*M2/4	*M2/4
8GG^/	[2d\
8r	.
8GG/L	.
8GG/J	.
=24	=24
8GG^/	4d\]
8r	.
8GG/L	4r
8GG/J	.
=25	=25
8GG^/	8.d\L
8r	.
.	16c#\Jk
8GG/L	8B\L
8GG/J	8c#\J
=26	=26
8GG^/	2c#\
8r	.
8GG/L	.
8GG/J	.
=27	=27
8GG^/	4r
8r	.
8GG/L	8d\L
8GG/J	8d\J
=28:|!	=28:|!
8GG^/	[2d\
8r	.
8GG/L	.
8GG/J	.
=29	=29
8GG^/	4d\]
8r	.
4r	4r
==	==
*-	*-
